icons/svg/cursor-pointer.svg

﻿<?xml version="1.0" encoding="utf-8"?>
<!DOCTYPE svg PUBLIC "-//W3C//DTD SVG 1.1//EN" "http://www.w3.org/Graphics/SVG/1.1/DTD/svg11.dtd">
<svg xmlns="http://www.w3.org/2000/svg" xmlns:xlink="http://www.w3.org/1999/xlink" version="1.1" baseProfile="full" width="24" height="24" viewBox="0 0 24.00 24.00" enable-background="new 0 0 24.00 24.00" xml:space="preserve">
	<path fill="#000000" fill-opacity="1" stroke-linejoin="round" d="M 10,2.00001C 11.1046,2.00001 12,2.89543 12,4L 12,8.50002C 12,8.50002 14,8.25002 14,9.25002C 14,9.25002 16,9.00002 16,10C 16,10 18,9.75002 18,10.75C 18,10.75 20,10.5 20,11.5L 20,15C 20,16 17,21 17,22L 9,22C 9,22 7,15 4,13C 4,13 3,7 8,12L 8,4C 8,2.89543 8.89543,2.00001 10,2.00001 Z "/>
</svg>

<svg xmlns="http://www.w3.org/2000/svg" version="1.1" baseProfile="full" width="24" height="24" viewBox="0 0 24.00 24.00" xml:space="preserve"><path fill="#000" fill-opacity="1" stroke-linejoin="round" d="M10 2c1.105 0 2 .895 2 2v4.5s2-.25 2 .75c0 0 2-.25 2 .75 0 0 2-.25 2 .75 0 0 2-.25 2 .75V15c0 1-3 6-3 7H9s-2-7-5-9c0 0-1-6 4-1V4c0-1.105.895-2 2-2z"/></svg>
